src/assets/images/Contacto-title.svg

<?xml version="1.0" encoding="UTF-8"?>
<svg width="248px" height="58px" viewBox="0 0 248 58" version="1.1" xmlns="http://www.w3.org/2000/svg" xmlns:xlink="http://www.w3.org/1999/xlink">
    <!-- Generator: Sketch 59 (86127) - https://sketch.com -->
    <title>Servicios</title>
    <desc>Created with Sketch.</desc>
    <g id="contacto" stroke="none" stroke-width="1" fill="none" fill-rule="evenodd">
        <g id="Iphone11Pro_375x812_001" transform="translate(-64.000000, -115.000000)">
            <g id="Servicios" transform="translate(65.000000, 116.000000)">
                <rect id="Rectangle" stroke="#FBB420" stroke-width="2" x="0" y="0" width="246" height="56" rx="11"></rect>
                <path d="M37.56,41.63 C39.2633333,41.63 40.92,41.28 42.53,40.58 C44.14,39.88 45.47,38.795 46.52,37.325 L46.52,37.325 L41.97,33.93 C41.41,34.77 40.6983333,35.4233333 39.835,35.89 C38.9716667,36.3566667 37.98,36.59 36.86,36.59 C35.88,36.59 34.9641667,36.3916667 34.1125,35.995 C33.2608333,35.5983333 32.52,35.0441667 31.89,34.3325 C31.26,33.6208333 30.7641667,32.7808333 30.4025,31.8125 C30.0408333,30.8441667 29.86,29.7766667 29.86,28.61 C29.86,27.4666667 30.0408333,26.405 30.4025,25.425 C30.7641667,24.445 31.2658333,23.5991667 31.9075,22.8875 C32.5491667,22.1758333 33.3075,21.6216667 34.1825,21.225 C35.0575,20.8283333 36.0083333,20.63 37.035,20.63 C38.0616667,20.63 38.9658333,20.805 39.7475,21.155 C40.5291667,21.505 41.1883333,22.0066667 41.725,22.66 L41.725,22.66 L45.925,19.23 C45.3883333,18.5533333 44.7816667,17.9816667 44.105,17.515 C43.4283333,17.0483333 42.7225,16.675 41.9875,16.395 C41.2525,16.115 40.5058333,15.9108333 39.7475,15.7825 C38.9891667,15.6541667 38.26,15.59 37.56,15.59 C35.6233333,15.59 33.8383333,15.8933333 32.205,16.5 C30.5716667,17.1066667 29.16,17.9758333 27.97,19.1075 C26.78,20.2391667 25.8525,21.61 25.1875,23.22 C24.5225,24.83 24.19,26.6266667 24.19,28.61 C24.19,30.5933333 24.5225,32.39 25.1875,34 C25.8525,35.61 26.78,36.9808333 27.97,38.1125 C29.16,39.2441667 30.5716667,40.1133333 32.205,40.72 C33.8383333,41.3266667 35.6233333,41.63 37.56,41.63 Z M62.6289094,41.63 C64.5655761,41.63 66.3505761,41.3266667 67.9839094,40.72 C69.6172428,40.1133333 71.0289094,39.2441667 72.2189094,38.1125 C73.4089094,36.9808333 74.3364094,35.61 75.0014094,34 C75.6664094,32.39 75.9989094,30.5933333 75.9989094,28.61 C75.9989094,26.6266667 75.6664094,24.83 75.0014094,23.22 C74.3364094,21.61 73.4089094,20.2391667 72.2189094,19.1075 C71.0289094,17.9758333 69.6172428,17.1066667 67.9839094,16.5 C66.3505761,15.8933333 64.5655761,15.59 62.6289094,15.59 C60.6922428,15.59 58.9072428,15.8933333 57.2739094,16.5 C55.6405761,17.1066667 54.2289094,17.9758333 53.0389094,19.1075 C51.8489094,20.2391667 50.9214094,21.61 50.2564094,23.22 C49.5914094,24.83 49.2589094,26.6266667 49.2589094,28.61 C49.2589094,30.5933333 49.5914094,32.39 50.2564094,34 C50.9214094,35.61 51.8489094,36.9808333 53.0389094,38.1125 C54.2289094,39.2441667 55.6405761,40.1133333 57.2739094,40.72 C58.9072428,41.3266667 60.6922428,41.63 62.6289094,41.63 Z M62.6289094,36.59 C61.4622428,36.59 60.4064094,36.3916667 59.4614094,35.995 C58.5164094,35.5983333 57.7055761,35.0441667 57.0289094,34.3325 C56.3522428,33.6208333 55.8330761,32.7808333 55.4714094,31.8125 C55.1097428,30.8441667 54.9289094,29.7766667 54.9289094,28.61 C54.9289094,27.4666667 55.1097428,26.405 55.4714094,25.425 C55.8330761,24.445 56.3522428,23.5991667 57.0289094,22.8875 C57.7055761,22.1758333 58.5164094,21.6216667 59.4614094,21.225 C60.4064094,20.8283333 61.4622428,20.63 62.6289094,20.63 C63.7955761,20.63 64.8514094,20.8283333 65.7964094,21.225 C66.7414094,21.6216667 67.5522428,22.1758333 68.2289094,22.8875 C68.9055761,23.5991667 69.4247428,24.445 69.7864094,25.425 C70.1480761,26.405 70.3289094,27.4666667 70.3289094,28.61 C70.3289094,29.7766667 70.1480761,30.8441667 69.7864094,31.8125 C69.4247428,32.7808333 68.9055761,33.6208333 68.2289094,34.3325 C67.5522428,35.0441667 66.7414094,35.5983333 65.7964094,35.995 C64.8514094,36.3916667 63.7955761,36.59 62.6289094,36.59 Z M86.2628189,41 L86.2628189,23.36 L86.3328189,23.36 L97.1478189,41 L104.287819,41 L104.287819,16.22 L98.8278189,16.22 L98.8278189,33.44 L98.7578189,33.44 L88.2228189,16.22 L80.8028189,16.22 L80.8028189,41 L86.2628189,41 Z M120.676728,41 L120.676728,21.05 L127.746728,21.05 L127.746728,16.22 L108.146728,16.22 L108.146728,21.05 L115.216728,21.05 L115.216728,41 L120.676728,41 Z M131.850638,41 L133.915638,35.75 L143.540638,35.75 L145.675638,41 L151.835638,41 L141.055638,16.22 L136.540638,16.22 L125.830638,41 L131.850638,41 Z M141.685638,31.13 L135.630638,31.13 L138.640638,23.43 L141.685638,31.13 Z M167.454547,41.63 C169.157881,41.63 170.814547,41.28 172.424547,40.58 C174.034547,39.88 175.364547,38.795 176.414547,37.325 L176.414547,37.325 L171.864547,33.93 C171.304547,34.77 170.592881,35.4233333 169.729547,35.89 C168.866214,36.3566667 167.874547,36.59 166.754547,36.59 C165.774547,36.59 164.858714,36.3916667 164.007047,35.995 C163.155381,35.5983333 162.414547,35.0441667 161.784547,34.3325 C161.154547,33.6208333 160.658714,32.7808333 160.297047,31.8125 C159.935381,30.8441667 159.754547,29.7766667 159.754547,28.61 C159.754547,27.4666667 159.935381,26.405 160.297047,25.425 C160.658714,24.445 161.160381,23.5991667 161.802047,22.8875 C162.443714,22.1758333 163.202047,21.6216667 164.077047,21.225 C164.952047,20.8283333 165.902881,20.63 166.929547,20.63 C167.956214,20.63 168.860381,20.805 169.642047,21.155 C170.423714,21.505 171.082881,22.0066667 171.619547,22.66 L171.619547,22.66 L175.819547,19.23 C175.282881,18.5533333 174.676214,17.9816667 173.999547,17.515 C173.322881,17.0483333 172.617047,16.675 171.882047,16.395 C171.147047,16.115 170.400381,15.9108333 169.642047,15.7825 C168.883714,15.6541667 168.154547,15.59 167.454547,15.59 C165.517881,15.59 163.732881,15.8933333 162.099547,16.5 C160.466214,17.1066667 159.054547,17.9758333 157.864547,19.1075 C156.674547,20.2391667 155.747047,21.61 155.082047,23.22 C154.417047,24.83 154.084547,26.6266667 154.084547,28.61 C154.084547,30.5933333 154.417047,32.39 155.082047,34 C155.747047,35.61 156.674547,36.9808333 157.864547,38.1125 C159.054547,39.2441667 160.466214,40.1133333 162.099547,40.72 C163.732881,41.3266667 165.517881,41.63 167.454547,41.63 Z M190.738457,41 L190.738457,21.05 L197.808457,21.05 L197.808457,16.22 L178.208457,16.22 L178.208457,21.05 L185.278457,21.05 L185.278457,41 L190.738457,41 Z M213.707366,41.63 C215.644033,41.63 217.429033,41.3266667 219.062366,40.72 C220.695699,40.1133333 222.107366,39.2441667 223.297366,38.1125 C224.487366,36.9808333 225.414866,35.61 226.079866,34 C226.744866,32.39 227.077366,30.5933333 227.077366,28.61 C227.077366,26.6266667 226.744866,24.83 226.079866,23.22 C225.414866,21.61 224.487366,20.2391667 223.297366,19.1075 C222.107366,17.9758333 220.695699,17.1066667 219.062366,16.5 C217.429033,15.8933333 215.644033,15.59 213.707366,15.59 C211.770699,15.59 209.985699,15.8933333 208.352366,16.5 C206.719033,17.1066667 205.307366,17.9758333 204.117366,19.1075 C202.927366,20.2391667 201.999866,21.61 201.334866,23.22 C200.669866,24.83 200.337366,26.6266667 200.337366,28.61 C200.337366,30.5933333 200.669866,32.39 201.334866,34 C201.999866,35.61 202.927366,36.9808333 204.117366,38.1125 C205.307366,39.2441667 206.719033,40.1133333 208.352366,40.72 C209.985699,41.3266667 211.770699,41.63 213.707366,41.63 Z M213.707366,36.59 C212.540699,36.59 211.484866,36.3916667 210.539866,35.995 C209.594866,35.5983333 208.784033,35.0441667 208.107366,34.3325 C207.430699,33.6208333 206.911533,32.7808333 206.549866,31.8125 C206.188199,30.8441667 206.007366,29.7766667 206.007366,28.61 C206.007366,27.4666667 206.188199,26.405 206.549866,25.425 C206.911533,24.445 207.430699,23.5991667 208.107366,22.8875 C208.784033,22.1758333 209.594866,21.6216667 210.539866,21.225 C211.484866,20.8283333 212.540699,20.63 213.707366,20.63 C214.874033,20.63 215.929866,20.8283333 216.874866,21.225 C217.819866,21.6216667 218.630699,22.1758333 219.307366,22.8875 C219.984033,23.5991667 220.503199,24.445 220.864866,25.425 C221.226533,26.405 221.407366,27.4666667 221.407366,28.61 C221.407366,29.7766667 221.226533,30.8441667 220.864866,31.8125 C220.503199,32.7808333 219.984033,33.6208333 219.307366,34.3325 C218.630699,35.0441667 217.819866,35.5983333 216.874866,35.995 C215.929866,36.3916667 214.874033,36.59 213.707366,36.59 Z" id="CONTACTO" fill="#FFFFFF" fill-rule="nonzero"></path>
                <circle id="Oval" fill="#FFFFFF" cx="213" cy="29" r="10"></circle>
            </g>
        </g>
    </g>
</svg>

<svg width="248" height="58" viewBox="0 0 248 58" xmlns="http://www.w3.org/2000/svg"><g transform="translate(1 1)" fill="none" fill-rule="evenodd"><rect stroke="#FBB420" stroke-width="2" width="246" height="56" rx="11"/><path d="M37.56 41.63c1.703 0 3.36-.35 4.97-1.05 1.61-.7 2.94-1.785 3.99-3.255l-4.55-3.395a5.921 5.921 0 01-2.135 1.96c-.863.467-1.855.7-2.975.7-.98 0-1.896-.198-2.748-.595a6.742 6.742 0 01-2.222-1.662 7.959 7.959 0 01-1.488-2.52c-.361-.969-.542-2.036-.542-3.203 0-1.143.18-2.205.543-3.185.361-.98.863-1.826 1.505-2.538a6.825 6.825 0 012.274-1.662 6.827 6.827 0 012.853-.595c1.027 0 1.93.175 2.713.525.781.35 1.44.852 1.977 1.505l4.2-3.43a8.422 8.422 0 00-1.82-1.715 9.982 9.982 0 00-2.117-1.12 11.82 11.82 0 00-2.24-.612 13.113 13.113 0 00-2.188-.193c-1.937 0-3.722.303-5.355.91-1.633.607-3.045 1.476-4.235 2.608-1.19 1.131-2.117 2.502-2.782 4.112-.665 1.61-.998 3.407-.998 5.39 0 1.983.332 3.78.997 5.39.665 1.61 1.593 2.98 2.783 4.112 1.19 1.132 2.602 2.001 4.235 2.608 1.633.607 3.418.91 5.355.91zm25.069 0c1.937 0 3.722-.303 5.355-.91 1.633-.607 3.045-1.476 4.235-2.608C73.409 36.981 74.336 35.61 75 34c.665-1.61.998-3.407.998-5.39 0-1.983-.333-3.78-.998-5.39-.665-1.61-1.592-2.98-2.782-4.112-1.19-1.132-2.602-2.001-4.235-2.608-1.633-.607-3.418-.91-5.355-.91-1.937 0-3.722.303-5.355.91-1.633.607-3.045 1.476-4.235 2.608-1.19 1.131-2.118 2.502-2.783 4.112-.665 1.61-.997 3.407-.997 5.39 0 1.983.332 3.78.997 5.39.665 1.61 1.593 2.98 2.783 4.112 1.19 1.132 2.602 2.001 4.235 2.608 1.633.607 3.418.91 5.355.91zm0-5.04c-1.167 0-2.223-.198-3.168-.595a7.109 7.109 0 01-2.432-1.662 7.335 7.335 0 01-1.558-2.52c-.361-.969-.542-2.036-.542-3.203 0-1.143.18-2.205.542-3.185.362-.98.881-1.826 1.558-2.538a7.109 7.109 0 012.432-1.662c.945-.397 2.001-.595 3.168-.595 1.167 0 2.222.198 3.167.595.945.397 1.756.95 2.433 1.662a7.303 7.303 0 011.557 2.538c.362.98.543 2.042.543 3.185 0 1.167-.18 2.234-.543 3.203a7.335 7.335 0 01-1.557 2.52 7.109 7.109 0 01-2.433 1.662c-.945.397-2 .595-3.167.595zM86.263 41V23.36h.07L97.148 41h7.14V16.22h-5.46v17.22h-.07L88.223 16.22h-7.42V41h5.46zm34.414 0V21.05h7.07v-4.83h-19.6v4.83h7.07V41h5.46zm11.174 0l2.065-5.25h9.625l2.135 5.25h6.16l-10.78-24.78h-4.515L125.83 41h6.02zm9.835-9.87h-6.055l3.01-7.7 3.045 7.7zm25.769 10.5c1.703 0 3.36-.35 4.97-1.05 1.61-.7 2.94-1.785 3.99-3.255l-4.55-3.395a5.921 5.921 0 01-2.135 1.96c-.864.467-1.855.7-2.975.7-.98 0-1.896-.198-2.748-.595a6.742 6.742 0 01-2.222-1.662 7.959 7.959 0 01-1.488-2.52c-.362-.969-.542-2.036-.542-3.203 0-1.143.18-2.205.542-3.185.362-.98.863-1.826 1.505-2.538a6.825 6.825 0 012.275-1.662 6.827 6.827 0 012.853-.595c1.026 0 1.93.175 2.712.525.782.35 1.44.852 1.978 1.505l4.2-3.43a8.422 8.422 0 00-1.82-1.715 9.982 9.982 0 00-2.118-1.12 11.82 11.82 0 00-2.24-.612 13.113 13.113 0 00-2.187-.193c-1.937 0-3.722.303-5.355.91-1.634.607-3.045 1.476-4.235 2.608-1.19 1.131-2.118 2.502-2.783 4.112-.665 1.61-.997 3.407-.997 5.39 0 1.983.332 3.78.997 5.39.665 1.61 1.593 2.98 2.783 4.112 1.19 1.132 2.601 2.001 4.235 2.608 1.633.607 3.418.91 5.355.91zm23.283-.63V21.05h7.07v-4.83h-19.6v4.83h7.07V41h5.46zm22.97.63c1.936 0 3.721-.303 5.354-.91 1.634-.607 3.045-1.476 4.235-2.608 1.19-1.131 2.118-2.502 2.783-4.112.665-1.61.997-3.407.997-5.39 0-1.983-.332-3.78-.997-5.39-.665-1.61-1.593-2.98-2.783-4.112-1.19-1.132-2.601-2.001-4.235-2.608-1.633-.607-3.418-.91-5.355-.91-1.936 0-3.721.303-5.355.91-1.633.607-3.045 1.476-4.235 2.608-1.19 1.131-2.117 2.502-2.782 4.112-.665 1.61-.998 3.407-.998 5.39 0 1.983.333 3.78.998 5.39.665 1.61 1.592 2.98 2.782 4.112 1.19 1.132 2.602 2.001 4.235 2.608 1.634.607 3.419.91 5.355.91zm0-5.04c-1.167 0-2.223-.198-3.168-.595a7.109 7.109 0 01-2.433-1.662 7.335 7.335 0 01-1.557-2.52c-.362-.969-.543-2.036-.543-3.203 0-1.143.181-2.205.543-3.185.362-.98.88-1.826 1.557-2.538a7.109 7.109 0 012.433-1.662c.945-.397 2-.595 3.167-.595 1.167 0 2.223.198 3.168.595.945.397 1.756.95 2.432 1.662a7.303 7.303 0 011.558 2.538c.362.98.542 2.042.542 3.185 0 1.167-.18 2.234-.542 3.203a7.335 7.335 0 01-1.558 2.52 7.109 7.109 0 01-2.432 1.662c-.945.397-2.001.595-3.168.595z" fill="#FFF" fill-rule="nonzero"/><circle fill="#FFF" cx="213" cy="29" r="10"/></g></svg>
